X: 32729
T: Polly Bishop's
R: slip jig
M: 9/8
K: Dmajor
ded d2A FED|agf fed ecA|ded d2A FED|1 Bcd eac d2A:|2 Bcd eac d3||
agf gfe fed|A2=c cdc cBA|agf gfe fed|Bcd eac d3:|
FDF GFG Acd|FDF GAG GE=C|FEF GFG ABc|def eac d3:|
agf gfe fga|A2=c cdc cBA|agf gfe fed|Bcd eac d3:|

